assets/icons/qvision/account_tree.svg

<svg xmlns="http://www.w3.org/2000/svg" height="24" viewBox="0 0 24 24" width="24"><path d="M0 0h24v24H0z" fill="none"/><path d="M22 11V3h-7v3H9V3H2v8h7V8h2v10h4v3h7v-8h-7v3h-2V8h2v3z"/></svg>

<svg width="24" height="24" viewBox="0 0 24 24" fill="none" xmlns="http://www.w3.org/2000/svg">
<g clip-path="url(#clip0_147_5878)">
<path d="M22 11V3H15V6H9V3H2V11H9V8H11V18H15V21H22V13H15V16H13V8H15V11H22Z" fill="#323232"/>
</g>
<defs>
<clipPath id="clip0_147_5878">
<rect width="24" height="24" fill="white"/>
</clipPath>
</defs>
</svg>
